src/assets/icon5.svg

<svg width="48" height="48" viewBox="0 0 48 48" fill="none" xmlns="http://www.w3.org/2000/svg">
<path d="M41.9224 6.2421H41.3528C42.4384 4.47467 42.0376 2.1018 40.2953 0.809112C38.418 -0.583611 35.7502 -0.135308 34.44 1.82253L31.4827 6.24219H6.07718C3.98894 6.24219 2.29004 7.9411 2.29004 10.0293V34.2421C2.29004 36.3303 3.98894 38.0292 6.07718 38.0292H20.7876L19.6761 42.6976H17.2772C15.7137 42.6976 14.4418 43.9695 14.4418 45.5329V46.1249H11.4845C10.9667 46.1249 10.547 46.5447 10.547 47.0624C10.547 47.5801 10.9667 47.9999 11.4845 47.9999H36.5152C37.0329 47.9999 37.4526 47.5801 37.4526 47.0624C37.4526 46.5447 37.0329 46.1249 36.5152 46.1249H33.5579V45.5329C33.5579 43.9695 32.2859 42.6976 30.7225 42.6976H28.3235L27.2121 38.0292H41.9225C44.0107 38.0292 45.7096 36.3303 45.7096 34.2421V10.0292C45.7096 7.941 44.0107 6.2421 41.9224 6.2421ZM28.4899 22.7229C27.0242 23.749 24.2782 22.3543 21.6559 23.7536C21.016 20.4298 21.4194 17.3037 24.7499 16.6137C25.1803 16.524 25.6436 16.4834 26.0381 16.4913L29.4296 19.0076C29.9217 20.4389 29.737 21.85 28.4899 22.7229ZM29.4347 12.6743L32.0885 14.6432L30.0477 17.1313L27.6451 15.3487L29.4347 12.6743ZM35.9984 2.86529C36.7085 1.80397 38.1566 1.55703 39.1781 2.31499C40.1999 3.07304 40.3829 4.53044 39.5732 5.51771L33.2788 13.1918L30.4785 11.1142L35.9984 2.86529ZM31.6828 45.5329V46.1249H16.3167V45.5329C16.3167 45.0034 16.7476 44.5725 17.2772 44.5725H30.7224C31.2519 44.5725 31.6828 45.0034 31.6828 45.5329ZM26.3961 42.6976H21.6035L22.715 38.0292H25.2846L26.3961 42.6976ZM43.8346 34.2421C43.8346 35.2964 42.9768 36.1542 41.9225 36.1542H6.07728C5.02289 36.1542 4.1651 35.2964 4.1651 34.2421V29.8518H6.84404C7.36182 29.8518 7.78153 29.432 7.78153 28.9143C7.78153 28.3967 7.36182 27.9769 6.84404 27.9769H4.16491V10.0292C4.16491 8.97486 5.0227 8.11706 6.07709 8.11706H30.228L25.8798 14.6151C24.0426 14.6317 22.2084 15.2717 21.0077 16.6735C19.3738 18.5808 19.0867 21.5777 20.1545 25.5809C20.337 26.2655 21.1912 26.5107 21.708 26.0171C24.1321 23.7008 27.1511 26.2273 29.8547 24.0391C31.5051 22.7032 31.8956 20.5794 31.2733 18.5934L39.8661 8.11706H41.9223C42.9767 8.11706 43.8344 8.97486 43.8344 10.0292V27.9768H14.3437C13.8259 27.9768 13.4062 28.3966 13.4062 28.9142C13.4062 29.4319 13.8259 29.8517 14.3437 29.8517H43.8346V34.2421Z" fill="white"/>
<path d="M10.4129 27.9949C10.2002 28.0372 10.0088 28.1521 9.87133 28.3198C9.73386 28.4876 9.65888 28.6978 9.65918 28.9147C9.65918 29.5011 10.1953 29.9502 10.7795 29.8334C11.0233 29.7848 11.2377 29.6413 11.3757 29.4346C11.5137 29.2278 11.564 28.9747 11.5154 28.7309C11.4111 28.2181 10.9136 27.8941 10.4129 27.9949Z" fill="white"/>
</svg>

<svg width="48" height="48" fill="none" xmlns="http://www.w3.org/2000/svg"><path d="M41.922 6.242h-.57A4.1 4.1 0 0 0 40.296.81a4.1 4.1 0 0 0-5.855 1.014l-2.957 4.42H6.077a3.791 3.791 0 0 0-3.787 3.786v24.213a3.791 3.791 0 0 0 3.787 3.787h14.71l-1.11 4.669h-2.4a2.839 2.839 0 0 0-2.835 2.835v.592h-2.957a.938.938 0 0 0 0 1.875h25.03a.938.938 0 0 0 0-1.875h-2.957v-.592a2.839 2.839 0 0 0-2.835-2.835h-2.4l-1.11-4.669h14.71a3.791 3.791 0 0 0 3.787-3.787V10.03a3.791 3.791 0 0 0-3.788-3.787zM28.49 22.722c-1.466 1.027-4.212-.368-6.834 1.032-.64-3.324-.237-6.45 3.094-7.14.43-.09.894-.13 1.288-.123l3.392 2.517c.492 1.43.307 2.842-.94 3.715zm.945-10.048 2.654 1.97-2.041 2.487-2.403-1.782 1.79-2.675zm6.563-9.809a2.227 2.227 0 0 1 3.18-.55 2.227 2.227 0 0 1 .395 3.203l-6.294 7.674-2.8-2.078 5.52-8.249zm-4.315 42.668v.592H16.317v-.592c0-.53.43-.96.96-.96h13.445c.53 0 .96.43.96.96zm-5.287-2.835h-4.793l1.112-4.669h2.57l1.111 4.669zm17.439-8.456a1.914 1.914 0 0 1-1.913 1.912H6.078a1.914 1.914 0 0 1-1.912-1.912v-4.39h2.679a.938.938 0 0 0 0-1.875h-2.68V10.029c0-1.054.859-1.912 1.913-1.912h24.151l-4.348 6.498c-1.837.017-3.672.657-4.872 2.059-1.634 1.907-1.921 4.904-.854 8.907a.938.938 0 0 0 1.554.436c2.424-2.316 5.443.21 8.147-1.978 1.65-1.336 2.04-3.46 1.418-5.446l8.593-10.476h2.056c1.055 0 1.912.858 1.912 1.912v17.948h-29.49a.938.938 0 0 0 0 1.875h29.49v4.39z" fill="#fff"/><path d="M10.413 27.995a.937.937 0 1 0 .366 1.837.937.937 0 0 0-.366-1.837z" fill="#fff"/></svg>
